**kern	**silbe	**kern	**silbe
*ICvox	*	*ICvox	*
*F#:	*	*F#:	*
*M4/4	*	*M4/4	*
*clefG2	*	*clefG2	*
r;	.	r;	.
=1	=1	=1	=1
1r	.	1r	.
=2	=2	=2	=2
1r	.	1r	.
=3	=3	=3	=3
1r	.	1r	.
=4	=4	=4	=4
1r	.	1r	.
=5	=5	=5	=5
1r	.	1r	.
=6	=6	=6	=6
1r	.	1r	.
=7	=7	=7	=7
1r	.	1r	.
=8	=8	=8	=8
1r	.	1r	.
=9	=9	=9	=9
4e	Dee	4g#	Dee
8r	.	8r	.
8e	dee	8g#	dee
8d#	dee	8f#	dee
4d#	dee	4f#	dee
[8c#	dee	[8e	dee
=10	=10	=10	=10
8c#]	_	8e]	_
4.c#	dee	4.e	dee
8B	dee	8d#	dee
4B	dee	4d#	dee
[8A#	dee	[8c#	dee
=11	=11	=11	=11
8A#]	_	8c#]	_
4.A#	dee	4.c#	dee
8G#	dee	8B	dee
4G#	dee	4B	dee
[8F#	dee	[8A#	dee
=12	=12	=12	=12
4F#]	_	4A#]	_
4r	.	4r	.
2r	.	2r	.
=13	=13	=13	=13
1r	.	1r	.
=14	=14	=14	=14
4d#	Doo	4f#	Doo
8r	.	8r	.
8d#	doo	8f#	doo
8c#	doo	8e	doo
4c#	doo	4e	doo
[8B	doo	[8d#	doo
=15	=15	=15	=15
8B]	_	8d#]	_
4.B	doo	4.d#	doo
8B	doo	8d#	doo
4B	doo	4d#	doo
[8A	doo	[8c#	doo
=16	=16	=16	=16
4A]	_	4c#]	_
4r	.	4r	.
2r	.	2r	.
=17	=17	=17	=17
1r	.	1r	.
=18	=18	=18	=18
4r	.	4r	.
8e	Dee	8g#	Dee
8e	dee	8g#	dee
8d	dee	8f#	dee
4d	dee	4f#	dee
[8c#	dee	[8e	dee
=19	=19	=19	=19
8c#]	_	8e]	_
4.c#	dee	4.e	dee
8B	dee	8d	dee
4A	dee	4c#	dee
[8d	dee	[8f#	dee
=20	=20	=20	=20
4d]	_	4f#]	_
4d	dee	4f#	dee
8c#	dee	8e	dee
4c#	dee	4e	dee
[8B	dee	[8d	dee
=21	=21	=21	=21
4B]	_	4d]	_
4r	.	4r	.
2r	.	2r	.
=22	=22	=22	=22
1r	.	1r	.
=23	=23	=23	=23
1r	.	1r	.
=24	=24	=24	=24
1r	.	1r	.
=25	=25	=25	=25
1r	.	1r	.
=26	=26	=26	=26
4r	.	4r	.
4G#	And	4B	And
4A	here's	4c#	here's
8B	to	8d	to
[8c#	you	[8e	you
=27	=27	=27	=27
*A:	*	*A:	*
2c#]	_	2e]	_
8c#	Mr-	8e	Mr-
4d	-s.	4f#	-s.
[8c#	Ro-	[8f#	Ro-
=28	=28	=28	=28
8c#]	_	8f#]	_
4B	-bin-	4f#	-bin-
4.A	-son	4.c#	-son
4r	.	4r	.
=29	=29	=29	=29
4e	Je-	4a	Je-
4c#	-sus	4e	-sus
8c#	loves	8e	loves
4d	you	4f#	you
[8c#	more	[8f#	more
=30	=30	=30	=30
8c#]	_	8f#]	_
4B	than	4d	than
4A	you	4c#	you
4B	will	4d	will
[8A	know	8c#	know
=31	=31	=31	=31
4A]	_	4d	_
4r	.	4r	.
2r	.	2r	.
=32	=32	=32	=32
4.r	.	4.r	.
4d	Wo	4f#	Wo
4c#	wo	4e	wo
[8B	wo	[8e	wo
=33	=33	=33	=33
4B]	_	4e]	_
4r	.	4r	.
2r	.	2r	.
=34	=34	=34	=34
4r	.	4r	.
4G#	God	4B	God
8A	bless	8c#	bless
4B	you	4d	you
[8c#	please	[8e	please
=35	=35	=35	=35
4c#]	_	4e]	_
4r	.	4r	.
8c#	Mr-	8e	Mr-
4d	-s.	4f#	-s.
[8c#	Ro-	[8f#	Ro-
=36	=36	=36	=36
8c#]	_	8f#]	_
4B	-bin-	4f#	-bin-
4.A	-son	4.c#	-son
4r	.	4r	.
=37	=37	=37	=37
8e	Heav-	8a	Heav-
4c#	-en	4e	-en
4.c#	holds	4.e	holds
8d	a	8f#	a
[8c#	place	[8f#	place
=38	=38	=38	=38
8c#]	_	8f#]	_
4B	for	4d	for
4.A	those	4.c#	those
8B	who	8d	who
[8A	pray	[8d	pray
=39	=39	=39	=39
4A]	_	4d]	_
4r	.	4r	.
2r	.	2r	.
=40	=40	=40	=40
4.r	.	4.r	.
4d	Hey	4f#	Hey
4c#	hey	4e	hey
[8B	hey	[8d	hey
=41	=41	=41	=41
4B]	_	4d]	_
4r	.	4r	.
2r	.	2r	.
=42	=42	=42	=42
4r	.	4r	.
8r	.	8r	.
[8B	hey	[8e	hey
8B]	_	8e]	_
4B	hey	4d	hey
[8A#	hey	[8c#	hey
=43	=43	=43	=43
*F#:	*	*F#:	*
4A#]	_	4c#]	_
4r	.	4r	.
2r	.	2r	.
=44	=44	=44	=44
1r	.	1r	.
=45	=45	=45	=45
1r	.	1r	.
=46	=46	=46	=46
2r	.	2r	.
4r	.	4r	.
4e	We'd	4g#	We'd
=47	=47	=47	=47
4e	like	4g#	like
8e	to	8g#	to
4d#	know	4f#	know
4d#	a	4f#	a
[8c#	li-	[8e	li-
=48	=48	=48	=48
8c#]	_	8e]	_
4.c#	-ttle	4.e	-ttle
4B	bit	4d#	bit
8B	a-	8d#	a-
[8A#	-bout	[8c#	-bout
=49	=49	=49	=49
4A#]	_	4c#]	_
8A#	you	8c#	you
4G#	for	4B	for
4F#	our	4A#	our
[8F#	files	[8A#	files
=50	=50	=50	=50
2F#]	_	2A#]	_
2r	.	2r	.
=51	=51	=51	=51
2r	.	2r	.
4r	.	4r	.
4d#	We'd	4f#	We'd
=52	=52	=52	=52
4d#	like	4f#	like
8d#	to	8f#	to
4c#	help	4e	help
4.c#	you	4.e	you
=53	=53	=53	=53
4.B	learn	4.d#	learn
8B	to	8d#	to
4B	help	4d#	help
[4B	your	[4d#	your
=54	=54	=54	=54
4B]	_	4d#]	_
2A	self	2c#	self
4r	.	4r	.
=55	=55	=55	=55
1r	.	1r	.
=56	=56	=56	=56
4r	.	4r	.
8e	Look	8e	Look
8e	a-	8e	a-
8e	-round	8e	-round
8d	_	8d	_
8d	you	8d	you
[8c#	all	[8c#	all
=57	=57	=57	=57
4c#]	_	4c#]	_
8c#	you	8c#	you
4B	see	4B	see
4.A	are	4.A	are
=58	=58	=58	=58
4d	sym-	4d	sym-
8d	-pa-	8d	-pa-
4c#	-the-	4c#	-the-
8A	-tic	8A	-tic
[4B	eyes	[4B	eyes
=59	=59	=59	=59
4B]	_	4B]	_
4r	.	4r	.
2r	.	2r	.
=60	=60	=60	=60
1r	.	1r	.
=61	=61	=61	=61
4r	.	4r	.
2c#	Stroll	2c#	Stroll
8B	a-	8B	a-
[8A#	-round	[8A#	-round
=62	=62	=62	=62
4A#]	_	4A#]	_
8F#	the	8F#	the
4.G#	grounds	4.G#	grounds
4A#	un-	4A#	un-
=63	=63	=63	=63
4B	-til	4B	-til
4A#	you	4A#	you
4G#	feel	4G#	feel
8F#	at	8F#	at
[8G#	home	[8G#	home
=64	=64	=64	=64
4G#]	_	4G#]	_
4G#	And	4B	And
4A	here's	4c#	here's
8B	to	8d	to
[8c#	you	[8e	you
=65	=65	=65	=65
*A:	*	*A:	*
4c#]	_	4e]	_
4r	.	4r	.
8c#	Mr-	8e	Mr-
4d	-s.	4f#	-s.
[8c#	Ro-	[8e	Ro-
=66	=66	=66	=66
8c#]	_	8e]	_
4B	-bin-	4d	-bin-
4.A	-son	4.c#	-son
4r	.	4r	.
=67	=67	=67	=67
4e	Je-	4a	Je-
4c#	-sus	4e	-sus
8c#	loves	8e	loves
4d	you	4f#	you
[8c#	more	[8e	more
=68	=68	=68	=68
8c#]	_	8e]	_
4B	than	4d	than
4A	you	4c#	you
4B	will	4d	will
[8A	know	8c#	know
=69	=69	=69	=69
4A]	_	4d	_
4r	.	4r	.
2r	.	2r	.
=70	=70	=70	=70
4.r	.	4.r	.
4d	Wo	4f#	Wo
4c#	wo	4e	wo
[8B	wo	[8e	wo
=71	=71	=71	=71
4B]	_	4e]	_
4r	.	4r	.
2r	.	2r	.
=72	=72	=72	=72
4r	.	4r	.
4G#	God	4B	God
8A	bless	8c#	bless
4B	you	4d	you
[8c#	please	[8e	please
=73	=73	=73	=73
4c#]	_	4e]	_
4r	.	4r	.
8c#	Mr-	8e	Mr-
4d	-s.	4f#	-s.
[8c#	Ro-	[8e	Ro-
=74	=74	=74	=74
8c#]	_	8e]	_
4B	-bin-	4d	-bin-
4.A	-son	4.c#	-son
4r	.	4r	.
=75	=75	=75	=75
8e	Heav-	8a	Heav-
4c#	-en	4e	-en
4.c#	holds	4.e	holds
8d	a	8f#	a
[8c#	place	8e	place
=76	=76	=76	=76
8c#]	_	8f#	_
4B	for	4d	for
4.A	those	4.c#	those
8B	who	8d	who
[8A	pray	[8d	pray
=77	=77	=77	=77
4A]	_	4d]	_
4r	.	4r	.
2r	.	2r	.
=78	=78	=78	=78
4.r	.	4.r	.
4d	Hey	4f#	Hey
4c#	hey	4e	hey
[8B	hey	[8d	hey
=79	=79	=79	=79
4B]	_	4d]	_
4r	.	4r	.
2r	.	2r	.
=80	=80	=80	=80
4.r	.	4.r	.
4B	hey	4e	hey
4B	hey	4d	hey
[8A#	hey	[8c#	hey
=81	=81	=81	=81
*F#:	*	*F#:	*
4A#]	_	4c#]	_
4r	.	4r	.
2r	.	2r	.
=82	=82	=82	=82
1r	.	1r	.
=83	=83	=83	=83
1r	.	1r	.
=84	=84	=84	=84
1r	.	1r	.
=85	=85	=85	=85
4r	.	4r	.
8e	Hide	8g#	Hide
8e	it	8g#	it
8d#	in	8f#	in
4d#	a	4f#	a
[8c#	hi-	[8e	hi-
=86	=86	=86	=86
8c#]	_	8e]	_
4c#	-ding	4e	-ding
4.B	place	4.d#	place
4B	where	4d#	where
=87	=87	=87	=87
4A#	no	4c#	no
8B	one	8d#	one
4A#	e-	4c#	e-
4G#	-ver	4B	-ver
[8F#	goes	[8A#	goes
=88	=88	=88	=88
2F#]	_	2A#]	_
2r	.	2r	.
=89	=89	=89	=89
1r	.	1r	.
=90	=90	=90	=90
*clefF4	*	*clefF4	*
4r	.	4r	.
8BB	Put	8BB	Put
8BB	it	8BB	it
8D#	in	8D#	in
4F#	your	4F#	your
[8B	pan-	[8B	pan-
=91	=91	=91	=91
4B]	_	4B]	_
8D#	-try	8D#	-try
4D#	with	4D#	with
4F#	your	4F#	your
[8B	cup-	[8B	cup-
=92	=92	=92	=92
8B]	_	8B]	_
4.A	-cakes	4.A	-cakes
2r	.	2r	.
=93	=93	=93	=93
1r	.	1r	.
=94	=94	=94	=94
*clefG2	*	*clefG2	*
4r	.	4r	.
8e	It's	8e	It's
8e	a	8e	a
8e	li-	8e	li-
4d	-ttle	4d	-ttle
[8c#	se-	[8c#	se-
=95	=95	=95	=95
8c#]	_	8c#]	_
4.c#	-cret	4.c#	-cret
4B	just	4B	just
8A	a	8A	a
[8d	Ro-	[8d	Ro-
=96	=96	=96	=96
8d]	_	8d]	_
4.d	-bin-	4.d	-bin-
4c#	-son's	4c#	-son's
8A	aff-	8A	aff-
[8B	-air	[8B	-air
=97	=97	=97	=97
4B]	_	4B]	_
4r	.	4r	.
2r	.	2r	.
=98	=98	=98	=98
1r	.	1r	.
=99	=99	=99	=99
4r	.	4r	.
2c#	Most	2c#	Most
8B	of	8B	of
[8A#	all	[8A#	all
=100	=100	=100	=100
4A#]	_	4A#]	_
8F#	you've	8F#	you've
4G#	got	4G#	got
4A#	to	4A#	to
[8B	hide	[8B	hide
=101	=101	=101	=101
4B]	_	4B]	_
4A#	it	4A#	it
4G#	from	4G#	from
8F#	the	8F#	the
[8G#	kids	[8G#	kids
=102	=102	=102	=102
4G#]	_	4G#]	_
4G#	Koo	4B	Koo
4A	Koo	4c#	Koo
8B	Ka-	8d	Ka-
[8c#	-choo	[8e	-choo
=103	=103	=103	=103
*A:	*	*A:	*
4c#]	_	4e]	_
4r	.	4r	.
8c#	Mr-	8e	Mr-
4d	-s.	4f#	-s.
[8c#	Ro-	[8e	Ro-
=104	=104	=104	=104
8c#]	_	8e]	_
4B	-bin-	4d	-bin-
4.A	-son	4.c#	-son
4r	.	4r	.
=105	=105	=105	=105
4e	Je-	4a	Je-
4c#	-sus	4e	-sus
8c#	loves	8e	loves
4d	you	4f#	you
[8c#	more	[8e	more
=106	=106	=106	=106
8c#]	_	8e]	_
4B	than	4d	than
4A	you	4c#	you
4B	will	4d	will
[8A	know	8c#	know
=107	=107	=107	=107
4A]	_	4d	_
4r	.	4r	.
2r	.	2r	.
=108	=108	=108	=108
4.r	.	4.r	.
4d	Wo	4f#	Wo
4.c#	wo	4.e	wo
=109	=109	=109	=109
4B	wo	4e	wo
4r	.	4r	.
2r	.	2r	.
=110	=110	=110	=110
4r	.	4r	.
4G#	God	4B	God
4A	bless	4c#	bless
8B	you	8d	you
[8c#	please	[8e	please
=111	=111	=111	=111
2c#]	_	2e]	_
8c#	Mr-	8e	Mr-
4d	-s.	4f#	-s.
[8c#	Ro-	[8e	Ro-
=112	=112	=112	=112
8c#]	_	8e]	_
4B	-bin-	4d	-bin-
4.A	-son	4.c#	-son
4r	.	4r	.
=113	=113	=113	=113
8e	Heav-	8a	Heav-
4c#	-en	4e	-en
4.c#	holds	4.e	holds
8d	a	8f#	a
[8c#	place	[8e	place
=114	=114	=114	=114
8c#]	_	8e]	_
4B	for	4d	for
4.A	those	4.c#	those
8B	who	8d	who
[8A	pray	[8d	pray
=115	=115	=115	=115
4A]	_	4d]	_
4r	.	4r	.
2r	.	2r	.
=116	=116	=116	=116
4.r	.	4.r	.
4d	Hey	4f#	Hey
4c#	hey	4e	hey
[8B	hey	[8d	hey
=117	=117	=117	=117
4B]	_	4d]	_
4r	.	4r	.
2r	.	2r	.
=118	=118	=118	=118
4.r	.	4.r	.
4B	hey	4e	hey
4B	hey	4d	hey
[8A#	hey	[8c#	hey
=119	=119	=119	=119
*F#:	*	*F#:	*
8A#]	_	8c#]	_
8r	.	8r	.
4r	.	4r	.
2r	.	2r	.
=120	=120	=120	=120
1r	.	1r	.
=121	=121	=121	=121
1r	.	1r	.
=122	=122	=122	=122
1r	.	1r	.
=123	=123	=123	=123
4r	.	4r	.
8e	Sit-	8g#	Sit-
8e	-ting	8g#	-ting
8d#	on	8f#	on
4d#	a	4f#	a
[8c#	so-	[8e	so-
=124	=124	=124	=124
8c#]	_	8e]	_
4.c#	-fa	4.e	-fa
8B	on	8d#	on
4B	a	4d#	a
[8A#	Sun-	[8c#	Sun-
=125	=125	=125	=125
4A#]	_	4c#]	_
8B	-day	8d#	-day
4.A#	af-	4.c#	af-
8G#	-ter-	8B	-ter-
[8F#	-noon	[8A#	-noon
=126	=126	=126	=126
4F#]	_	4A#]	_
4r	.	4r	.
2r	.	2r	.
=127	=127	=127	=127
1r	.	1r	.
=128	=128	=128	=128
*clefF4	*	*clefF4	*
4r	.	4r	.
8BB	Go-	8BB	Go-
8BB	-ing	8BB	-ing
4D#	to	4D#	to
8F#	the	8F#	the
[8B	can-	[8B	can-
=129	=129	=129	=129
4B]	_	4B]	_
8D#	-di-	8D#	-di-
4.D#	-dates'	4.D#	-dates'
8F#	de-	8F#	de-
[8B	-bate	[8B	-bate
=130	=130	=130	=130
4B]	_	4B]	_
4r	.	4r	.
2r	.	2r	.
=131	=131	=131	=131
1r	.	1r	.
=132	=132	=132	=132
*clefG2	*	*clefG2	*
4r	.	4r	.
8e	Laugh	8g#	Laugh
8e	a-	8g#	a-
8e	-bout	8g#	-bout
8d	_	8f#	_
4d	it	4f#	it
=133	=133	=133	=133
4c#	shout	4e	shout
8c#	a-	8e	a-
4B	-bout	4d	-bout
4.A	it	4.c#	it
=134	=134	=134	=134
4d	When	4f#	When
4d	you've	4f#	you've
4c#	got	4e	got
8c#	to	8e	to
[8B	choose	[8d	choose
=135	=135	=135	=135
2B]	_	2d]	_
2r	.	2r	.
=136	=136	=136	=136
1r	.	1r	.
=137	=137	=137	=137
4r	.	4r	.
8c#	Ev-	8c#	Ev-
8c#	-ery	8c#	-ery
4c#	way	4c#	way
4B	you	4B	you
=138	=138	=138	=138
8A#	look	8A#	look
4.A#	at	4.A#	at
4G#	this	4G#	this
8F#	you	8F#	you
[8B	lose	[8B	lose
=139	=139	=139	=139
2B]	_	2B]	_
2r	.	2r	.
=140	=140	=140	=140
4r	.	4r	.
4G#	Where	4B	Where
4A	have	4c#	have
4B	you	4d	you
=141	=141	=141	=141
*A:	*	*A:	*
2c#	gone	2e	gone
4c#	Joe	4e	Joe
8d	Di-	8f#	Di-
[8c#	-Ma-	[8f#	-Ma-
=142	=142	=142	=142
8c#]	_	8f#]	_
4B	-ggi-	4f#	-ggi-
4A	-o	4c#	-o
4A	Our	4c#	Our
[8e	Na-	[8a	Na-
=143	=143	=143	=143
8e]	_	8a]	_
4c#	-tion	4e	-tion
4.c#	turns	4.e	turns
8d	it's	8f#	it's
[8c#	lone-	[8f#	lone-
=144	=144	=144	=144
4c#]	_	4f#]	_
8B	-ly	8f#	-ly
4.A	eyes	4.c#	eyes
8B	to	8d	to
[8A	you	[8d	you
=145	=145	=145	=145
4A]	_	4d]	_
4r	.	4r	.
2r	.	2r	.
=146	=146	=146	=146
2r	.	2r	.
8d	Woo	8f#	Woo
4c#	woo	4e	woo
[8B	woo	[8e	woo
=147	=147	=147	=147
4B]	_	4e]	_
4r	.	4r	.
2r	.	2r	.
=148	=148	=148	=148
4r	.	4r	.
4G#	What's	4B	What's
4A	that	4c#	that
8B	you	8d	you
[8c#	say	[8e	say
=149	=149	=149	=149
2c#]	_	2e]	_
8c#	Mr-	8e	Mr-
4d	-s.	4f#	-s.
[8c#	Ro-	[8f#	Ro-
=150	=150	=150	=150
8c#]	_	8f#]	_
4B	-bin-	4f#	-bin-
4.A	-son	4.c#	-son
4r	.	4r	.
=151	=151	=151	=151
4e	Jolt-	4a	Jolt-
8c#	-ing	8e	-ing
4.c#	Joe	4.e	Joe
4d	has	4f#	has
=152	=152	=152	=152
4c#	left	4f#	left
8B	and	8f#	and
4.A	gone	4.c#	gone
8B	a-	8d	a-
[8A	-way	[8d	-way
=153	=153	=153	=153
2A]	_	2d]	_
2r	.	2r	.
=154	=154	=154	=154
4r	.	4r	.
8r	.	8r	.
4d	Hey	4f#	Hey
4c#	hey	4e	hey
[8B	hey	[8d	hey
=155	=155	=155	=155
2B]	_	2d]	_
2r	.	2r	.
=156	=156	=156	=156
4r	.	4r	.
8r	.	8r	.
4B	Hey	4e	Hey
4B	hey	4d	hey
[8A#	hey	[8c#	hey
=157	=157	=157	=157
*F#:	*	*F#:	*
8A#]	_	8c#]	_
8r	.	8r	.
4r	.	4r	.
2r	.	2r	.
=158	=158	=158	=158
1r	.	1r	.
=159	=159	=159	=159
1r	.	1r	.
=160	=160	=160	=160
1r	.	1r	.
=161	=161	=161	=161
1r	.	1r	.
=162	=162	=162	=162
1r	.	1r	.
=163	=163	=163	=163
1r	.	1r	.
=164	=164	=164	=164
1r	.	1r	.
=165	=165	=165	=165
1r	.	1r	.
=166	=166	=166	=166
1r	.	1r	.
=167	=167	=167	=167
1r	.	1r	.
=168	=168	=168	=168
1r	.	1r	.
=169	=169	=169	=169
1r	.	1r	.
=170	=170	=170	=170
1r	.	1r	.
=171	=171	=171	=171
1r	.	1r	.
=172	=172	=172	=172
1r	.	1r	.
=173	=173	=173	=173
1r	.	1r	.
=174	=174	=174	=174
1r	.	1r	.
=175	=175	=175	=175
1r	.	1r	.
=176	=176	=176	=176
1r	.	1r	.
=177	=177	=177	=177
1r	.	1r	.
=178	=178	=178	=178
1r	.	1r	.
=179	=179	=179	=179
1r	.	1r	.
=180	=180	=180	=180
1r	.	1r	.
=181	=181	=181	=181
1r	.	1r	.
=182	=182	=182	=182
1r	.	1r	.
=183	=183	=183	=183
1r	.	1r	.
=184	=184	=184	=184
1r	.	1r	.
r;	.	r;	.
r;	.	r;	.
*-	*-	*-	*-
!!!ENC: Nathaniel Condit-Schultz
!!!MBID: df569676-9c08-4bec-8137-daa122c04ca9
